X: 1
T: Intrigas no Boteco do Brendan Behan
C: Peter Barnes 1992
S: image from Johathan Panek via Bob Alessio 2017-12-1
%R: waltz, ???
Z: 2017 John Chambers <jc:trillian.mit.edu>
M: 3/4
L: 1/8
K: Am
za ef ^df ||\
"Am"e3 A c2 | za ef ^df | "E"e3 ^G B2 | zE ^GB de |\
f^d ze B2 | dE ^DE cB | "Am"BA cf e2 | "E"z ||
a ef ^df ||\
"Am"e3 A c2 | zE Ac e^f | "Em"g6 | ze d'^c' =c'b |\
ag ^fe ^dc | "B7"^AB ^df gf | "E7"=fe ^de Bz | z |]
a ef ^df ||\
"Am"e3 A c2 | za ef ^df | "E"e3 ^G B2 | zE ^GB de |\
"E7"f^d ze B2 | dE ^GB cB | "A7"_BA ^ce ga |
_ba ^ga e=g |\
"Em"gf ef d2 | "G"GB de fg | "C"f d2 e c2 | "F"FA ce g^f |\
"B7"=fe dc BA | "E7"^GE c2 Bc | "Am"A6 | !fine!z |]
K: A
|: e ee ee |\
"A"ce eA ee | ce Ae ce | "E"de eB ee | de Be de |\
"E" de ee Be | de gf e^d | "A"fe ^de c2 | "A7"z ||
e ee ^de |\
[1 "Dm"=f6 | zd a=f ed | "Am"=f^d e4 | z=c dc BA |\
"Em"=G B2 G B2 | "B7"^F2 FA GF | "E7"FG/F/ E4 | z :|
[2 "A"a e2 a c2 | "A7"zA GA ce | "D"gf ^ef d2 | "Dm"za g=f ed |\
"A/E"dc Bc AE | "E"c4 B2 | "A"A6 |]
